src/lib/packages/icons/src/assets/line/hard-drive.svg

<svg width="24" height="24" viewBox="0 0 24 24" fill="none" xmlns="http://www.w3.org/2000/svg">
<path d="M21.6421 13.333L20.187 5.3291C19.856 3.5161 18.3391 2.25 16.4971 2.25H7.50488C5.66188 2.25 4.14594 3.5161 3.81494 5.3291L2.36011 13.333C2.28811 13.729 2.25195 14.136 2.25195 14.541V16V17V18C2.25195 20.418 3.58395 21.75 6.00195 21.75H18.002C20.42 21.75 21.752 20.418 21.752 18V17V16V14.541C21.75 14.136 21.7141 13.73 21.6421 13.333ZM5.29004 5.5979C5.49104 4.4929 6.38091 3.75 7.50391 3.75H16.4961C17.6191 3.75 18.509 4.4929 18.71 5.5979L19.998 12.6809C19.449 12.4059 18.789 12.251 18 12.251H6C5.211 12.251 4.55195 12.4069 4.00195 12.6809L5.29004 5.5979ZM20.25 18C20.25 19.577 19.577 20.25 18 20.25H6C4.423 20.25 3.75 19.577 3.75 18V17V16C3.75 14.423 4.423 13.75 6 13.75H18C19.577 13.75 20.25 14.423 20.25 16V17V18ZM15 17C15 17.552 14.552 18 14 18C13.448 18 13 17.552 13 17C13 16.448 13.448 16 14 16C14.552 16 15 16.448 15 17ZM18 17C18 17.552 17.552 18 17 18C16.448 18 16 17.552 16 17C16 16.448 16.448 16 17 16C17.552 16 18 16.448 18 17Z" fill="currentColor"/>
</svg>

<svg xmlns="http://www.w3.org/2000/svg" width="24" height="24" fill="none"><path fill="currentColor" d="m21.642 13.333-1.455-8.004c-.331-1.813-1.848-3.079-3.69-3.079H7.505c-1.843 0-3.36 1.266-3.69 3.08L2.36 13.332a6.775 6.775 0 0 0-.108 1.208V18c0 2.418 1.332 3.75 3.75 3.75h12c2.418 0 3.75-1.332 3.75-3.75v-3.459a6.976 6.976 0 0 0-.11-1.208ZM5.29 5.598C5.491 4.493 6.38 3.75 7.504 3.75h8.992c1.123 0 2.013.743 2.214 1.848l1.288 7.083c-.549-.275-1.209-.43-1.998-.43H6c-.789 0-1.448.156-1.998.43L5.29 5.598ZM20.25 18c0 1.577-.673 2.25-2.25 2.25H6c-1.577 0-2.25-.673-2.25-2.25v-2c0-1.577.673-2.25 2.25-2.25h12c1.577 0 2.25.673 2.25 2.25v2ZM15 17a1 1 0 1 1-2 0 1 1 0 0 1 2 0Zm3 0a1 1 0 1 1-2 0 1 1 0 0 1 2 0Z"/></svg>
